X:23
T:En sup till - polska efter Jan Erik Hammarberg
T:(Svenska Låtar Västmanland nr 158)
R:Polska
S:efter Jan Erik Hammarberg
O:Västmanland, Ljusnarsberg, Hörken
B:FMK - katalog Vs4 bild 22
Z:Nils L
M:3/4
L:1/8
K:G
 [GG,]2 [AF]2 [GG,]2| A>G FG [AD]2 | {Bc}B/A/B cB AG | FG/F/ EF D2 | 
S[GG,]2 [AF]2 [GG,]2| A>G FG AB | c((3d/c/B/) ce ((3d/e/d/)B | {de}(,d{ed})c A2 !fine!G2 ::
[BDG,]G BG BG | AG FE D2 | {EF}EC EC EC | (DC) B,C "^segno al fine"D2 |

